dist/img/product/uniq.svg

<svg width="80" height="80" viewBox="0 0 80 80" fill="none" xmlns="http://www.w3.org/2000/svg">
<rect width="80" height="80" rx="5" fill="#D1327F"/>
<path d="M42.8525 27.2406C42.8484 27.0719 42.8781 26.904 42.9398 26.7469C43.0016 26.5898 43.0941 26.4467 43.212 26.3259C43.3299 26.2051 43.4708 26.1091 43.6263 26.0435C43.7819 25.978 43.949 25.9442 44.1178 25.9442C44.2866 25.9442 44.4536 25.978 44.6092 26.0435C44.7648 26.1091 44.9056 26.2051 45.0235 26.3259C45.1414 26.4467 45.234 26.5898 45.2957 26.7469C45.3574 26.904 45.3871 27.0719 45.383 27.2406C45.381 28.5881 44.9193 29.8945 44.0744 30.9441C43.2294 31.9937 42.0517 32.7236 40.7358 33.0134V42.638H45.2358C45.4562 42.6364 45.6741 42.5907 45.8766 42.5035C46.079 42.4164 46.262 42.2896 46.4147 42.1307C46.5675 41.9717 46.6868 41.7838 46.7658 41.578C46.8448 41.3723 46.8818 41.1528 46.8747 40.9324C46.8074 40.1939 46.9224 39.4501 47.2097 38.7664C47.4971 38.0827 47.9479 37.48 48.5226 37.0113C50.7699 35.1561 52.3931 32.6553 53.1724 29.8474C53.9518 27.0394 53.8497 24.0598 52.8799 21.3118C51.9102 18.5638 50.1197 16.18 47.7507 14.483C45.3816 12.786 42.5485 11.8578 39.6346 11.824C36.7207 11.7901 33.8667 12.6522 31.4589 14.2937C29.051 15.9351 27.2056 18.2766 26.1723 21.0014C25.1389 23.7261 24.9676 26.7026 25.6815 29.5279C26.3954 32.3532 27.9599 34.891 30.1635 36.7979C30.4367 37.0338 30.689 37.2928 30.9179 37.572C31.6713 38.5522 32.065 39.7615 32.033 40.9974C32.033 41.4325 32.2059 41.8498 32.5135 42.1575C32.8212 42.4652 33.2385 42.638 33.6736 42.638H38.2055V33.013C36.8898 32.7232 35.7123 31.9932 34.8676 30.9437C34.0228 29.8942 33.5613 28.5879 33.5594 27.2406C33.5552 27.0719 33.5849 26.904 33.6467 26.7469C33.7084 26.5898 33.801 26.4467 33.9188 26.3259C34.0367 26.2051 34.1776 26.1091 34.3332 26.0435C34.4887 25.978 34.6558 25.9442 34.8246 25.9442C34.9934 25.9442 35.1605 25.978 35.316 26.0435C35.4716 26.1091 35.6125 26.2051 35.7304 26.3259C35.8483 26.4467 35.9408 26.5898 36.0025 26.7469C36.0643 26.904 36.094 27.0719 36.0899 27.2406C36.0946 28.1344 36.4529 28.9899 37.0865 29.6202C37.7202 30.2506 38.5776 30.6044 39.4714 30.6044C40.3651 30.6044 41.2225 30.2506 41.8562 29.6202C42.4898 28.9899 42.8482 28.1344 42.8529 27.2406H42.8525Z" fill="#F1EDF3"/>
<path d="M61.5912 53.4072L56.7262 46.598C56.6091 46.4341 56.4546 46.3005 56.2755 46.2084C56.0964 46.1162 55.8978 46.0681 55.6964 46.0681H40.5243L46.6837 54.8005L60.8641 54.8179C61.0281 54.8182 61.1891 54.7732 61.3292 54.688C61.4694 54.6027 61.5833 54.4804 61.6585 54.3346C61.7336 54.1888 61.7671 54.0251 61.7552 53.8615C61.7434 53.6979 61.6866 53.5407 61.5912 53.4072Z" fill="#F1EDF3"/>
<path d="M23.0094 46.5982L18.185 53.3514C18.0897 53.4847 18.033 53.6416 18.0211 53.805C18.0091 53.9684 18.0424 54.1319 18.1172 54.2777C18.1921 54.4234 18.3056 54.5457 18.4454 54.6312C18.5851 54.7167 18.7457 54.762 18.9096 54.7622L33.0417 54.7803L39.2199 46.0681H24.0396C23.8381 46.0681 23.6394 46.1161 23.4603 46.2083C23.2811 46.3005 23.1265 46.4342 23.0094 46.5982Z" fill="#F1EDF3"/>
<path d="M33.6954 57.3126H33.6936L22.3987 57.322V67.237C22.3987 67.6721 22.5715 68.0894 22.8792 68.3971C23.1869 68.7047 23.6042 68.8776 24.0393 68.8776H38.6031V51.3157L34.7286 56.7793C34.6114 56.9442 34.4565 57.0786 34.2767 57.1714C34.097 57.2642 33.8976 57.3126 33.6954 57.3126Z" fill="#F1EDF3"/>
<path d="M44.9929 56.7949L41.1331 51.3235V68.8776H55.6964C56.1315 68.8776 56.5488 68.7048 56.8565 68.3971C57.1641 68.0894 57.337 67.6721 57.337 67.237V57.345L46.0257 57.331C45.8232 57.3306 45.6238 57.2817 45.4442 57.1885C45.2645 57.0952 45.1098 56.9603 44.9929 56.7949Z" fill="#F1EDF3"/>
</svg>

<svg width="80" height="80" fill="none" xmlns="http://www.w3.org/2000/svg"><rect width="80" height="80" rx="5" fill="#D1327F"/><path d="M42.852 27.24a1.267 1.267 0 1 1 2.531 0 5.92 5.92 0 0 1-4.647 5.773v9.625h4.5a1.65 1.65 0 0 0 1.639-1.706 4.53 4.53 0 0 1 1.648-3.92 14.222 14.222 0 1 0-18.36-.214c.274.236.526.495.755.774a5.392 5.392 0 0 1 1.115 3.425 1.641 1.641 0 0 0 1.64 1.641h4.532v-9.625a5.92 5.92 0 0 1-4.646-5.772 1.263 1.263 0 0 1 1.266-1.297 1.266 1.266 0 0 1 1.265 1.297 3.382 3.382 0 0 0 6.763 0Zm18.739 26.167-4.865-6.809a1.265 1.265 0 0 0-1.03-.53H40.524l6.16 8.733 14.18.017a.892.892 0 0 0 .727-1.41ZM23.01 46.598l-4.825 6.753a.891.891 0 0 0 .725 1.411l14.132.018 6.178-8.712H24.04a1.266 1.266 0 0 0-1.03.53Z" fill="#F1EDF3"/><path d="M33.695 57.313h-.001l-11.295.009v9.915a1.64 1.64 0 0 0 1.64 1.64h14.564v-17.56l-3.874 5.463a1.268 1.268 0 0 1-1.034.534Zm11.298-.518-3.86-5.471v17.554h14.563a1.64 1.64 0 0 0 1.641-1.641v-9.892l-11.311-.014a1.268 1.268 0 0 1-1.033-.536Z" fill="#F1EDF3"/></svg>
